app/images/checker.svg

<svg width="26" height="26" viewBox="0 0 26 26" fill="none" xmlns="http://www.w3.org/2000/svg">
<rect width="26" height="26" rx="13" fill="#FFEB01"/>
<path d="M11.7614 17.3337C11.5532 17.3337 11.345 17.2583 11.2019 17.1076L7.16783 13.2264C6.85552 12.925 6.85552 12.4477 7.16783 12.1462C7.48014 11.8448 7.97463 11.8448 8.28695 12.1462L11.7484 15.4873L18.5802 8.89308C18.8926 8.59163 19.387 8.59163 19.6994 8.89308C20.0117 9.19453 20.0117 9.67182 19.6994 9.97327L12.321 17.1076C12.1648 17.2583 11.9566 17.3337 11.7614 17.3337Z" fill="#231F20"/>
</svg>

<svg width="26" height="26" fill="none" xmlns="http://www.w3.org/2000/svg"><rect width="26" height="26" rx="13" fill="#FFEB01"/><path d="M11.761 17.334a.77.77 0 01-.56-.226l-4.033-3.882a.74.74 0 010-1.08.806.806 0 011.119 0l3.461 3.341 6.832-6.594a.806.806 0 011.12 0 .74.74 0 010 1.08l-7.379 7.135a.815.815 0 01-.56.226z" fill="#231F20"/></svg>
